assets/icons/bulb-2.svg

<svg width="20" height="20" viewBox="0 0 20 20" fill="none" xmlns="http://www.w3.org/2000/svg">
<path d="M14.3767 10.4075C14.14 12.3783 12.8492 13.1658 12.2917 13.7375C11.7334 14.3108 11.8334 14.425 11.8709 15.2658C11.8771 15.3699 11.862 15.4741 11.8265 15.572C11.7909 15.67 11.7357 15.7597 11.6642 15.8355C11.5927 15.9113 11.5064 15.9716 11.4107 16.0128C11.3149 16.054 11.2118 16.0752 11.1075 16.075H8.89255C8.7884 16.0748 8.68538 16.0534 8.58977 16.0121C8.49417 15.9708 8.40798 15.9104 8.33647 15.8347C8.26497 15.759 8.20964 15.6695 8.17386 15.5717C8.13808 15.4739 8.12261 15.3698 8.12838 15.2658C8.12838 14.4408 8.20505 14.2492 7.70838 13.7375C7.07505 13.1042 5.58505 12.21 5.58505 9.75082C5.58124 9.13999 5.70402 8.53499 5.94564 7.97396C6.18726 7.41293 6.54248 6.90804 6.98892 6.49111C7.43535 6.07419 7.96332 5.75426 8.53953 5.55151C9.11575 5.34875 9.72772 5.26757 10.3369 5.31307C10.946 5.35857 11.5391 5.52976 12.0788 5.81587C12.6185 6.10197 13.0931 6.49677 13.4727 6.9754C13.8522 7.45402 14.1285 8.00608 14.2841 8.59678C14.4397 9.18747 14.4712 9.804 14.3767 10.4075Z" stroke="currentColor" stroke-linecap="round" stroke-linejoin="round"/>
<path d="M8.71647 16.0296V17.2896C8.71647 17.6338 8.90814 17.9163 9.14397 17.9163H10.8548C11.0923 17.9163 11.2831 17.633 11.2831 17.2896V16.0296M9.3498 7.2463C8.85775 7.24652 8.38593 7.44215 8.03807 7.79016C7.69021 8.13817 7.4948 8.61008 7.4948 9.10214M16.1098 9.91964H17.6381M14.5715 4.90964L15.6556 3.82547M15.4048 14.1663L16.489 15.2496M9.9998 1.98047V3.2163M4.36647 3.82464L5.44314 4.90964M3.53314 15.2496L4.6098 14.1663M3.8898 9.91964H2.3623" stroke="currentColor" stroke-linecap="round" stroke-linejoin="round"/>
</svg>

<svg xmlns="http://www.w3.org/2000/svg" width="20" height="20" fill="none" viewBox="0 0 20 20"><path stroke="currentColor" stroke-linecap="round" stroke-linejoin="round" d="M14.377 10.408c-.237 1.97-1.528 2.758-2.085 3.33-.559.573-.459.687-.421 1.528a.765.765 0 0 1-.764.809H8.894a.767.767 0 0 1-.765-.81c0-.824.077-1.016-.42-1.527-.633-.634-2.123-1.528-2.123-3.987a4.422 4.422 0 1 1 8.792.657"/><path stroke="currentColor" stroke-linecap="round" stroke-linejoin="round" d="M8.716 16.03v1.26c0 .344.192.626.428.626h1.71c.238 0 .43-.283.43-.626v-1.26M9.35 7.246a1.856 1.856 0 0 0-1.855 1.856m8.615.818h1.528m-3.067-5.01 1.085-1.085m-.251 10.341 1.084 1.084M9.999 1.98v1.236m-5.633.609L5.443 4.91m-1.91 10.34 1.077-1.084M3.89 9.92H2.362"/></svg>
